X: 34620
T: Road To Andy's, The
R: jig
M: 6/8
K: Dmajor
|:DED dcd|edB ~g3|afd Adf|edB BAF|
DED dcd|edB gfg|afd Adf|edc ~d3:|
|:fef afa|bab a2g|fef afa|bab a2f|
gag ~f3|edB ~g3|afd Adf|edc ~d3:|

